X:1
T:Title
%%score { ( 1 4 5 ) | ( 2 3 ) }
L:1/8
M:4/4
K:D
V:1 treble nm="Grand Piano"
V:4 treble 
V:5 treble 
V:2 treble 
V:3 treble 
V:1
 z8[Q:1/4=100] | [=CEA]4- [CEA]F[FA][=ce] | [GBd]2 [GBd]2- [GBd][GB][G^A][GB] | %3
 [F=cd]2 [EFc]2 [EFA]2 [DF^A]2 | [DGB]6 z2 | G2 z2 =CF[FA][=ce] | [ABd]2 [GBd]2- [GBd]dcB | %7
 z4 e2 A2 |[M:5/8] A-A- A3 |[M:3/8] DCD |[M:4/4] B6 z2 | [=CDG]2 [CDF]4 ^CD | =c6 z2 | B6 z2 | %14
 B6 z2 | [EG]2 [EG]2- [EG]G[EGA][G^A] | .[B,DGB]2 [B,D]2- [B,D][FB][EF=c][DF] | %17
[M:5/8] [B,DG]-[B,DG]- [B,DG]3 |] %18
V:2
 z4 z DEB | D,,A,,D,E, z D z F | G,,D,G,A, B,DCD | D,^G,A,D, =CA,F,D, | G,,C,E,D, B,[K:treble]DEB | %5
 D,,A,,D,E, z D z F | G,,D,G,A, B,2[K:treble] [^G,D=F]2 | %7
 F[FA][EGA][B,GA] .[A,CGA]2[K:bass] C-[E,C] |[M:5/8] [D,F,=C][D,A,C][E,A,C] [=F,A,C][^F,A,C] | %9
[M:3/8] z3 |[M:4/4] G,,D,C,D, z B, z B, | z4 F,2 z2 | D,A,^G,A,[K:treble] z F z F | %13
 G,[K:bass]E,D,B,, z B,^A,B, | G,,D,G,A, z[K:treble] e z d | z4 D2 =C2 | D,G,F,E, z D z =C | %17
[M:5/8] G,,E,,D,, B,,,G,,, |] %18
V:3
 x8 | z4 F,2 D,2 | x8 | x8 | x5[K:treble] x3 | z4 F,2 D,2 | x6[K:treble] x2 | %7
 [A,D]2 A,2 z2[K:bass] .[F,A,]2 |[M:5/8] x5 |[M:3/8] x3 |[M:4/4] z4 G,2 G,,2 | A,,D,C,D, z D D,2 | %12
 z4[K:treble] D2 D,2 | z4[K:bass] G,,2 z2 | z4 B,2[K:treble] G,2 | =C,G,A,B, z E z E | %16
 z4 D,2 D,,2 |[M:5/8] x5 |] %18
V:4
 x8 | x8 | x8 | x8 | x8 | z2 F4 z2 | x8 | ABcd z G, z G, |[M:5/8] z FE ^D=D |[M:3/8] x3 | %10
[M:4/4] z [DG]2 [DG]- [DG]D[B,DE][DG] | x8 | z [DF]2 D z A[Fd]^A | z [DG]2 [DG]- [DG]DCD | %14
 z [=FG]2 [FG]- [FG]2 .[FBe]2 | x8 | x8 |[M:5/8] x5 |] %18
V:5
 x8 | x8 | x8 | x8 | x8 | [=CA-]4 A2 z2 | x8 | x8 |[M:5/8] x5 |[M:3/8] x3 |[M:4/4] x8 | x8 | %12
 z2 z F- F z z2 | x8 | x8 | x8 | x8 |[M:5/8] x5 |] %18

